svgs/sharp-light/arrows-to-eye.svg

<svg xmlns="http://www.w3.org/2000/svg" viewBox="0 0 640 512"><!--! Font Awesome Pro 6.6.0 by @fontawesome - https://fontawesome.com License - https://fontawesome.com/license (Commercial License) Copyright 2024 Fonticons, Inc. --><path d="M32 9.4L9.4 32 20.7 43.3 105.4 128 48 128l-16 0 0 32 16 0 96 0 16 0 0-16 0-96 0-16-32 0 0 16 0 57.4L43.3 20.7 32 9.4zM596.7 20.7L512 105.4 512 48l0-16-32 0 0 16 0 96 0 16 16 0 96 0 16 0 0-32-16 0-57.4 0 84.7-84.7L630.6 32 608 9.4 596.7 20.7zM630.6 480l-11.3-11.3L534.6 384l57.4 0 16 0 0-32-16 0-96 0-16 0 0 16 0 96 0 16 32 0 0-16 0-57.4 84.7 84.7L608 502.6 630.6 480zM9.4 480L32 502.6l11.3-11.3L128 406.6l0 57.4 0 16 32 0 0-16 0-96 0-16-16 0-96 0-16 0 0 32 16 0 57.4 0L20.7 468.7 9.4 480zM320 208a48 48 0 1 1 0 96 48 48 0 1 1 0-96zm0 128a80 80 0 1 0 0-160 80 80 0 1 0 0 160zM213.7 322.6c-23.3-21.6-40.3-46.9-50.4-66.6c10.1-19.6 27.1-44.9 50.4-66.6C242 163.2 277.6 144 320 144s78 19.2 106.3 45.4c23.3 21.6 40.3 46.9 50.4 66.6c-10.1 19.6-27.1 44.9-50.4 66.6C398 348.8 362.4 368 320 368s-78-19.2-106.3-45.4zM320 400c105.6 0 172-96 192-144c-20-48-86.4-144-192-144s-172 96-192 144c20 48 86.4 144 192 144z"/></svg>

<svg xmlns="http://www.w3.org/2000/svg" viewBox="0 0 640 512"><!--! Font Awesome Pro 6.4.2 by @fontawesome - https://fontawesome.com License - https://fontawesome.com/license (Commercial License) Copyright 2023 Fonticons, Inc. --><path d="M32 9.4L9.4 32 20.7 43.3 105.4 128H48 32v32H48h96 16V144 48 32H128V48v57.4L43.3 20.7 32 9.4zM596.7 20.7L512 105.4V48 32H480V48v96 16h16 96 16V128H592 534.6l84.7-84.7L630.6 32 608 9.4 596.7 20.7zM630.6 480l-11.3-11.3L534.6 384H592h16V352H592 496 480v16 96 16h32V464 406.6l84.7 84.7L608 502.6 630.6 480zM9.4 480L32 502.6l11.3-11.3L128 406.6V464v16h32V464 368 352H144 48 32l0 32H48h57.4L20.7 468.7 9.4 480zM320 208a48 48 0 1 1 0 96 48 48 0 1 1 0-96zm0 128a80 80 0 1 0 0-160 80 80 0 1 0 0 160zM213.7 322.6c-23.3-21.6-40.3-46.9-50.4-66.6c10.1-19.6 27.1-44.9 50.4-66.6C242 163.2 277.6 144 320 144s78 19.2 106.3 45.4c23.3 21.6 40.3 46.9 50.4 66.6c-10.1 19.6-27.1 44.9-50.4 66.6C398 348.8 362.4 368 320 368s-78-19.2-106.3-45.4zM320 400c105.6 0 172-96 192-144c-20-48-86.4-144-192-144s-172 96-192 144c20 48 86.4 144 192 144z"/></svg>
